svg/keyboard_tab_reverse.svg

<svg xmlns="http://www.w3.org/2000/svg" viewBox="0 0 24 24"><path d="M4 6H2v12h2m7-12-6 6 6 6 1.41-1.42L8.83 13H23v-2H8.83l3.58-3.59z"/></svg>

<svg xmlns="http://www.w3.org/2000/svg" id="mdi-keyboard-tab-reverse" viewBox="0 0 24 24"><path d="M4 6H2V18H4M11 6L5 12L11 18L12.41 16.58L8.83 13H23V11H8.83L12.41 7.41L11 6Z" /></svg>
